X:466
T:Little Donald's Wife
T:An Gabh Thu Bean, A Dh\`o'ill Bhig
R:Reel
B:The Athole Collection
M:C|
L:1/8
K:A Minor
A|E(AA)^G ABcA|E(AA)^G A2 A>^G|E(AA)^G ABce|dcBA G2G:|
|:B|c2ec dcBG|c2ec A2 A>B|cBcd e^fge|dcBA G2G:|

